X:1
T:Vox Dilecti, CMD
T:John Bacchus Dykes, 1868
T:Vox Dilecti, CMD
T:Public Domain
C:John Bacchus Dykes, 1868
Z:Public Domain
%%score ( 1 2 ) ( 3 4 )
L:1/8
M:4/4
K:Bb
V:1 treble 
V:2 treble 
V:3 bass 
V:4 bass 
V:1
 D2 | (D2- [D-G]2) [DG]2 [CFA]2 | (B3 B) [CFA]2 [EA]2 | [DG]2 [DG]2 [CG]2 [EG]2 | [D^F]6 D2 | %5
 D2 [DG]2 [EG]2 [EA]2 | [DB]3 [Dc] [DA]2 [Dd]2 | [Gc]2 [DB]2 [EA]2 [=EG]2 | D6 ||[K:G] (DC) | %10
 [B,D]2 [DB]2 [CA]2 [B,G]2 | [EG]2 [CE]2 [B,D]2 [A,D]2 | [B,G]2 ([CA][DB]) (EF)(BA) | [FA]6 [DA]2 | %14
 [Dd]3 [Dc] [DB]2 [EB]2 | [Ee]3 [Ed] [Ec]2 (EF) | G2 [GB]2 [Fd]3 [DF] | [DG]6 |] %18
V:2
 D2 | B,6 x2 | [DF]4 x4 | x8 | x6 D2 | D2 x6 | x8 | x8 | D6 ||[K:G] x2 | x8 | x8 | x4 c2 G2 | x8 | %14
 x8 | x6 A2 | x8 | x6 |] %18
V:3
 D,2 | ([D,G,-]2 G,2- G,2) [F,,F,A,]2 | (B,3 B,) [F,,F,B,]2 [F,C]2 | %3
 [G,B,]2 [G,B,]2 [E,G,]2 [C,C]2 | [D,A,]6 [^F,A,]2 | [G,B,]2 [G,B,]2 [E,B,]2 [C,C]2 | %6
 [G,,B,]2 G,2 [F,A,]2 [F,A,]2 | [E,G,]2 [D,G,]2 [C,A,]2 (A,G,) | [D,^F,]6 ||[K:G] (B,A,) | %10
 G,2 (G,,[G,,D,]) (E,F,) [G,,G,]2 | [C,G,]2 [E,G,]2 G,2 [F,A,]2 | %12
 [E,G,]2 ([E,G,][D,F,]) (G,A,)(B,C) | [D,D]6 ([D,F,][E,G,]) | [F,A,]3 [F,A,] G,2 ([E,^G,][F,A,]) | %15
 [^G,B,]3 [G,B,] A,2 [C,C]2 | [D,B,]2 [D,D]2 [D,C]3 [D,C] | [G,,B,]6 |] %18
V:4
 D,2 | G,,6 x2 | [B,,F,]4 x4 | x8 | x8 | x8 | x2 G,2 x4 | x6 ^C,2 | x6 ||[K:G] D,2 | G,2 G,,2 x4 | %11
 x4 G,2 x2 | x4 C,2 G,2 | x8 | x4 ^G,2 x2 | x4 A,2 x2 | x8 | x6 |] %18

